!!!OTL: 1620. Die ausstaendischen Maurergesellen.
!!!ARE: Europa, Mitteleuropa, Deutschland, Hessen, Wetterau, Bettenhausen
!!!SCT: E1620
!!!TXL: @@DE
!!!YEM: Copyright 1995, estate of Helmut Schaffrath.
**kern	**text
*ICvox	*
!! Mixed meters:  4/4; 3/8; 3/4
*M4/4	*
*met(c|)	*
*k[f#]	*
*G:	*
!LO:TX:a:t=Markig.	!
!LO:TX:a:t=Aus Bettenhauſen in der Wetterau.	!
{4d	Ʒu
=1	=1
4g	Frank-
4g	-furt
4b	vor
4b	dem
=2	=2
2dd}	Thor
{4.ee	da
8dd	ver-
=3	=3
4dd	-ſam-
4cc	-melt
4cc	ſich
4cc	das
=4	=4
4dd	Mau-
4b	-rer-
4.b;}	-corps
{8dd	Wir
=5	=5
*M3/8	*
16aL	ſe-
16bJ	.
8cc	-hen
8a	von
=6	=6
8b	Wei-
8dd}	-ten
{8dd	den
=7	=7
16aL	Mei-
16bJ	.
8cc	-ſter
8a	her-
=8	=8
8b	-rei-
8dd}	-ten
{8d	nach
=9	=9
*M3/4	*
4g	ſei-
4b	-ner
8eeL	Ma-
8ddJ	.
=10	=10
2dd}	-nier.
{8.ee	Luſt-
16dd	-ge
=11	=11
8.ddL	Mau-
16ccJ	.
4cc	-rer,
8.ddL	luſtge
16ccJ	.
=12	=12
8.ccL	Mau-
16bJ	.
4b}	-rer
{8g	ren-
8a	-dez-
=13	=13
8.b	-ren-
16b	-dez-
4b	-vous!
8b	ren-
8cc	-dez-
=14	=14
8.ee	-ren-
16dd	-dez-
4dd}	-vous!
{8.eeL	luſtge
16ddJ	.
=15	=15
8.ddL	Mau-
16ccJ	.
4cc	-rer
8dd	hau-
8dd	-en
=16	=16
4b	ʒu.
4r}	.
==	==
!!!AGN: Staende -, Handwerker -, Gesellen - Lied, Maurer, Streik
!!!ONB: ESAC (Essen Associative Code) Database: ERK3
!!!AMT: irregular
!!!AIN: vox
!!!EED: Helmut Schaffrath
!!!EEV: 1.0
!!!GTL: Staendelieder (Berufslieder). 8. Handwerkerlieder.
!!!URL-scan: https://rosdok.uni-rostock.de/mcrviewer/recordIdentifier/rosdok_ppn745177999/iview2/phys_0444.iview2?x=-449.8344612962892&y=259.70435616141185&scale=0.47549036216460333&rotation=0&layout=singlePageLayout
!!!ENC: Anna Maria Matuszewska
!!!EEV: 2025/08/01
*-	*-
